X: 273
T: Perth Hunt
R: reel
M: C
L: 1/8
Z: 2012 John Chambers <jc:trillian.mit.edu>
B: J. Anderson "Budget of Strathspeys, Reels and Country Dances" (Early 1800s) p.27 #3
F: http://imslp.org/wiki/Anderson%27s_Budget_of_Strathspeys,_Reels_and_Country_Dances_(Various)
K: D
B | A2(FA) DAFA | DAFA BEEd | A2(FA) DAFd | faeg fdd :|
g | (f/e/d) (ad) bdad | (f/e/d) (af) geeg | (f/e/d) (ad) bdad | ABde fdd ||
g | (f/e/d) (ad) bdad | fdad geeg | (fa).d.f (gb)ed | aBde fdd |]

%%sep 2 1 500
%%sep 1 1 500

